src/16/panel/rescuetime-offline.svg

<svg xmlns="http://www.w3.org/2000/svg" width="16" height="16" version="1">
 <defs>
  <style id="current-color-scheme" type="text/css">
   .ColorScheme-Text { color:#dfdfdf; } .ColorScheme-Highlight { color:#4285f4; }
  </style>
 </defs>
 <path style="opacity:0.3;fill:currentColor;fill-rule:evenodd" class="ColorScheme-Text" d="M 5,1 V 5 H 1 V 11 H 5 V 15 H 11 V 11 H 15 V 5 H 11 V 1 Z M 8,2 C 8.554,2 9,2.446 9,3 V 6.2695 C 9.3027,6.445 9.5541,6.6969 9.729,7 H 13 C 13.554,7 14,7.446 14,8 14,8.554 13.554,9 13,9 H 9.73 C 9.3731,9.6182 8.7138,9.9993 8,10 6.8954,10 6,9.1046 6,8 6.0013,7.2867 6.3823,6.6281 7,6.2715 V 3 C 7,2.446 7.446,2 8,2 Z"/>
</svg>

<svg xmlns="http://www.w3.org/2000/svg" width="16" height="16" version="1"><defs><style id="current-color-scheme" type="text/css">.ColorScheme-Text{color:#dfdfdf;}.ColorScheme-Highlight{color:#5294e2;}</style></defs><defs><style id="current-color-scheme" type="text/css"></style></defs><path d="M5 1v4H1v6h4v4h6v-4h4V5h-4V1zm3 1c.554 0 1 .446 1 1v3.27a2 2 0 0 1 .729.73H13c.554 0 1 .446 1 1s-.446 1-1 1H9.73A2 2 0 0 1 6 8a2 2 0 0 1 1-1.729V3c0-.554.446-1 1-1z" opacity=".3" fill="currentColor" fill-rule="evenodd" class="ColorScheme-Text"/></svg>
